svgs/light/paragraph-left.svg

<svg xmlns="http://www.w3.org/2000/svg" viewBox="0 0 384 512"><!--! Font Awesome Pro 6.3.0 by @fontawesome - https://fontawesome.com License - https://fontawesome.com/license (Commercial License) Copyright 2023 Fonticons, Inc. --><path d="M143.1 224h48.01l.0625 80c0 8.836 7.164 16 16 16s16-7.164 16-16L224 32h63.94L288 304c0 8.836 7.164 16 16 16S320 312.8 320 304L319.9 32H336C344.8 32 352 24.84 352 16C352 7.162 344.8 0 336 0H147.4C84.75 0 31.63 50 32 112.6C32.38 176.4 80.24 224 143.1 224zM87.13 57C103.1 41 124.8 32 147.4 32h44.63v160h-48C97.88 192 64.25 158.5 64 112.5C64 91.63 72.25 71.63 87.13 57zM368 400H60.2l62.05-51.7c6.781-5.656 7.688-15.75 2.031-22.55c-5.656-6.828-15.74-7.688-22.52-2.047l-96.01 80C2.094 406.8 0 411.3 0 416s2.094 9.25 5.75 12.3l96.01 80C104.8 510.8 108.4 512 112 512c4.562 0 9.113-1.953 12.27-5.75c5.656-6.797 4.75-16.89-2.031-22.55L60.2 432H368c8.844 0 16-7.157 16-16S376.8 400 368 400z"/></svg>

<svg xmlns="http://www.w3.org/2000/svg" viewBox="0 0 384 512"><!-- Font Awesome Pro 6.0.0-alpha2 by @fontawesome - https://fontawesome.com License - https://fontawesome.com/license (Commercial License) --><path d="M144.002 224H192.002L192.064 304C192.064 312.836 199.229 320 208.064 320S224.064 312.836 224.064 304L224.002 32H287.938L288 304C288 312.836 295.164 320 304 320S320 312.836 320 304L319.938 32H336C344.836 32 352 24.836 352 16C352 7.162 344.836 0 336 0H147.377C84.752 0 31.627 50 32.002 112.625C32.377 176.375 80.252 224 144.002 224ZM87.127 57C103.127 41 124.752 32 147.377 32H192.002V192H144.002C97.877 192 64.252 158.5 64.002 112.5C64.002 91.625 72.252 71.625 87.127 57ZM368 400H60.201L122.25 348.297C129.031 342.641 129.938 332.547 124.281 325.75C118.625 318.922 108.531 318.062 101.75 323.703L5.75 403.703C2.094 406.75 0 411.25 0 416S2.094 425.25 5.75 428.297L101.75 508.297C104.75 510.781 108.375 512 112 512C116.562 512 121.125 510.047 124.281 506.25C129.938 499.453 129.031 489.359 122.25 483.703L60.201 432H368C376.844 432 384 424.844 384 416S376.844 400 368 400Z"/></svg>
